SVG_Azure_All/Cognitive Services Language Understanding.svg

<?xml version="1.0" encoding="UTF-8" standalone="no"?>
<!-- Generated by Microsoft Visio, SVG Export Cognitive Services Language Understanding.svg Page-1 -->

<svg
   xmlns:dc="http://purl.org/dc/elements/1.1/"
   xmlns:cc="http://creativecommons.org/ns#"
   xmlns:rdf="http://www.w3.org/1999/02/22-rdf-syntax-ns#"
   xmlns:svg="http://www.w3.org/2000/svg"
   xmlns="http://www.w3.org/2000/svg"
   xmlns:sodipodi="http://sodipodi.sourceforge.net/DTD/sodipodi-0.dtd"
   xmlns:inkscape="http://www.inkscape.org/namespaces/inkscape"
   width="0.78735679in"
   height="0.78735679in"
   viewBox="0 0 56.689597 56.69"
   xml:space="preserve"
   class="st4"
   version="1.1"
   id="svg35"
   sodipodi:docname="Cognitive Services Language Understanding.svg"
   style="font-size:12px;overflow:visible;color-interpolation-filters:sRGB;fill:none;fill-rule:evenodd;stroke-linecap:square;stroke-miterlimit:3"
   inkscape:version="0.92.5 (2060ec1f9f, 2020-04-08)"><metadata
   id="metadata39"><rdf:RDF><cc:Work
       rdf:about=""><dc:format>image/svg+xml</dc:format><dc:type
         rdf:resource="http://purl.org/dc/dcmitype/StillImage" /></cc:Work></rdf:RDF></metadata><sodipodi:namedview
   pagecolor="#ffffff"
   bordercolor="#666666"
   borderopacity="1"
   objecttolerance="10"
   gridtolerance="10"
   guidetolerance="10"
   inkscape:pageopacity="0"
   inkscape:pageshadow="2"
   inkscape:window-width="640"
   inkscape:window-height="480"
   id="namedview37"
   showgrid="false"
   inkscape:zoom="1.4193119"
   inkscape:cx="37.795128"
   inkscape:cy="37.786193"
   inkscape:window-x="0"
   inkscape:window-y="0"
   inkscape:window-maximized="0"
   inkscape:current-layer="svg35" />
	<style
   type="text/css"
   id="style2">
	<![CDATA[
		.st1 {fill:#0078d4;stroke:none;stroke-linecap:butt;stroke-width:34}
		.st2 {fill:url(#grad0-8);stroke:none;stroke-linecap:butt;stroke-width:34}
		.st3 {fill:#ffffff;stroke:none;stroke-linecap:butt;stroke-width:34}
		.st4 {fill:none;fill-rule:evenodd;font-size:12px;overflow:visible;stroke-linecap:square;stroke-miterlimit:3}
	]]>
	</style>

	<defs
   id="Patterns_And_Gradients">
		<linearGradient
   id="grad0-8"
   x1="0"
   y1="73.539997"
   x2="51.170001"
   y2="73.539997"
   gradientUnits="userSpaceOnUse">
			<stop
   offset="0"
   stop-color="#5ea0ef"
   stop-opacity="1"
   id="stop4" />
			<stop
   offset="1"
   stop-color="#0078d4"
   stop-opacity="1"
   id="stop6" />
		</linearGradient>
	</defs>
	<g
   id="g33"
   transform="translate(-34.000441,-34.0043)">
		<title
   id="title10">Page-1</title>
		<g
   id="group6394-1"
   transform="translate(34,-34.0157)">
			<title
   id="title12">Cognitive Services Language Understanding</title>
			<g
   id="group6395-2">
				<title
   id="title14">Sheet.6395</title>
				<g
   id="shape6396-3">
					<title
   id="title16">Sheet.6396</title>
					<path
   d="M 0,96.36 A 28.3471,28.3471 -180 0 0 28.35,124.71 28.3471,28.3471 -180 0 0 56.69,96.36 28.3471,28.3471 -180 0 0 28.35,68.02 28.3471,28.3471 -180 0 0 0,96.36 Z"
   class="st1"
   id="path18"
   inkscape:connector-curvature="0"
   style="fill:#0078d4;stroke:none;stroke-width:34;stroke-linecap:butt" />
				</g>
				<g
   id="shape6397-5"
   transform="translate(2.7622,-2.76535)">
					<title
   id="title21">Sheet.6397</title>
					<path
   d="m 0,99.13 a 25.5817,25.5817 -180 0 0 25.58,25.58 v 0 A 25.5817,25.5817 -180 0 0 51.17,99.13 V 99.12 A 25.5817,25.5817 -180 0 0 25.58,73.54 v 0 A 25.5817,25.5817 -180 0 0 0,99.12 Z"
   class="st2"
   id="path23"
   inkscape:connector-curvature="0"
   style="fill:url(#grad0-8);stroke:none;stroke-width:34;stroke-linecap:butt" />
				</g>
				<g
   id="shape6398-9"
   transform="translate(13.3638,-11.5591)">
					<title
   id="title26">Sheet.6398</title>
					<path
   d="m 6.83,124.7 a 6.4126,6.4126 0 0 1 -3.89,-0.95 4.3874,4.3874 0 0 1 -1.13,-3.46 v -9 c 0,-1.47 -0.6,-2.24 -1.81,-2.24 v -2.25 c 1.21,0 1.81,-0.78 1.81,-2.34 v -8.82 a 4.60157,4.60157 0 0 1 1.13,-3.55 5.85512,5.85512 0 0 1 3.89,-0.94 v 2.25 c -1.3,0 -1.99,0.69 -1.99,2.16 v 8.64 c 0,1.99 -0.6,3.2 -1.89,3.72 a 3.60315,3.60315 0 0 1 1.89,3.72 v 8.56 a 2.97638,2.97638 -180 0 0 0.44,1.73 1.88976,1.88976 -180 0 0 1.46,0.52 z M 21.72,91.14 a 6.4126,6.4126 0 0 1 3.89,0.95 4.3874,4.3874 0 0 1 1.12,3.46 v 9 c 0,1.47 0.61,2.25 1.82,2.25 v 2.25 c -1.21,0 -1.82,0.77 -1.82,2.33 v 8.74 a 4.59213,4.59213 0 0 1 -1.12,3.55 5.82047,5.82047 0 0 1 -3.89,1.04 v -2.25 c 1.29,0 1.99,-0.69 1.99,-2.16 v -8.66 c 0,-1.99 0.6,-3.2 1.89,-3.72 A 3.60315,3.60315 0 0 1 23.71,104.2 V 95.64 A 2.97638,2.97638 -180 0 0 23.27,93.91 1.88976,1.88976 -180 0 0 21.8,93.39 Z"
   class="st3"
   id="path28"
   inkscape:connector-curvature="0"
   style="fill:#ffffff;stroke:none;stroke-width:34;stroke-linecap:butt" />
				</g>
			</g>
		</g>
	</g>
</svg>

<?xml version="1.0" encoding="UTF-8" standalone="no"?>
<!DOCTYPE svg PUBLIC "-//W3C//DTD SVG 1.1//EN" "http://www.w3.org/Graphics/SVG/1.1/DTD/svg11.dtd">
<!-- Generated by Microsoft Visio, SVG Export Cognitive Services Language Understanding.svg Page-1 -->
<svg xmlns="http://www.w3.org/2000/svg" xmlns:xlink="http://www.w3.org/1999/xlink" xmlns:ev="http://www.w3.org/2001/xml-events"
		width="1.73185in" height="1.73206in" viewBox="0 0 124.693 124.709" xml:space="preserve" color-interpolation-filters="sRGB"
		class="st4">
	<style type="text/css">
	<![CDATA[
		.st1 {fill:#0078d4;stroke:none;stroke-linecap:butt;stroke-width:34}
		.st2 {fill:url(#grad0-8);stroke:none;stroke-linecap:butt;stroke-width:34}
		.st3 {fill:#ffffff;stroke:none;stroke-linecap:butt;stroke-width:34}
		.st4 {fill:none;fill-rule:evenodd;font-size:12px;overflow:visible;stroke-linecap:square;stroke-miterlimit:3}
	]]>
	</style>

	<defs id="Patterns_And_Gradients">
		<linearGradient id="grad0-8" x1="0" y1="0" x2="1" y2="0" gradientTransform="rotate(90 0.5 0.5)">
			<stop offset="0" stop-color="#5ea0ef" stop-opacity="1"/>
			<stop offset="1" stop-color="#0078d4" stop-opacity="1"/>
		</linearGradient>
	</defs>
	<g>
		<title>Page-1</title>
		<g id="group6226-1" transform="translate(34,-34.0157)">
			<title>Cognitive Services Language Understanding</title>
			<g id="group6227-2">
				<title>Sheet.6227</title>
				<g id="shape6228-3">
					<title>Sheet.6228</title>
					<path d="M0 96.36 A28.3471 28.3471 -180 0 0 28.35 124.71 A28.3471 28.3471 -180 0 0 56.69 96.36 A28.3471 28.3471
								 -180 0 0 28.35 68.02 A28.3471 28.3471 -180 0 0 0 96.36 Z" class="st1"/>
				</g>
				<g id="shape6229-5" transform="translate(2.7622,-2.76535)">
					<title>Sheet.6229</title>
					<path d="M-0 99.13 A25.5817 25.5817 -180 0 0 25.58 124.71 L25.58 124.71 A25.5817 25.5817 -180 0 0 51.17 99.13
								 L51.17 99.12 A25.5817 25.5817 -180 0 0 25.58 73.54 L25.58 73.54 A25.5817 25.5817 -180 0 0 0 99.12
								 L0 99.13 Z" class="st2"/>
				</g>
				<g id="shape6230-9" transform="translate(13.3638,-11.5591)">
					<title>Sheet.6230</title>
					<path d="M6.83 124.7 A6.4126 6.4126 0 0 1 2.94 123.75 A4.3874 4.3874 0 0 1 1.81 120.29 L1.81 111.29 C1.81 109.82
								 1.21 109.05 0 109.05 L0 106.8 C1.21 106.8 1.81 106.02 1.81 104.46 L1.81 95.64 A4.60157 4.60157 0
								 0 1 2.94 92.09 A5.85512 5.85512 0 0 1 6.83 91.15 L6.83 93.4 C5.53 93.4 4.84 94.09 4.84 95.56 L4.84
								 104.2 C4.84 106.19 4.24 107.4 2.95 107.92 A3.60315 3.60315 0 0 1 4.84 111.64 L4.84 120.2 A2.97638
								 2.97638 -180 0 0 5.28 121.93 A1.88976 1.88976 -180 0 0 6.74 122.45 L6.83 124.7 L6.83 124.7 ZM21.72
								 91.14 A6.4126 6.4126 0 0 1 25.61 92.09 A4.3874 4.3874 0 0 1 26.73 95.55 L26.73 104.55 C26.73 106.02
								 27.34 106.8 28.55 106.8 L28.55 109.05 C27.34 109.05 26.73 109.82 26.73 111.38 L26.73 120.12 A4.59213
								 4.59213 0 0 1 25.61 123.67 A5.82047 5.82047 0 0 1 21.72 124.71 L21.72 122.46 C23.01 122.46 23.71
								 121.77 23.71 120.3 L23.71 111.64 C23.71 109.65 24.31 108.44 25.6 107.92 A3.60315 3.60315 0 0 1 23.71
								 104.2 L23.71 95.64 A2.97638 2.97638 -180 0 0 23.27 93.91 A1.88976 1.88976 -180 0 0 21.8 93.39 L21.72
								 91.14 Z" class="st3"/>
				</g>
			</g>
		</g>
	</g>
</svg>
